pro/src/icons/stroke-search.svg

<svg width="48" height="48" fill="none" xmlns="http://www.w3.org/2000/svg">
<path id="icon" fill-rule="evenodd" clip-rule="evenodd" d="M 22 2 C 33.0456 2 42 10.9543 42 22 C 42 26.8018 40.3078 31.2084 37.4872 34.6558 L 45.4142 42.5858 C 46.1952 43.3668 46.1952 44.6332 45.4142 45.4142 C 44.6932 46.1352 43.5588 46.1906 42.7742 45.5806 L 42.5858 45.4142 L 34.6558 37.4872 C 31.2084 40.3078 26.8018 42 22 42 C 10.9543 42 2 33.0456 2 22 C 2 10.9543 10.9543 2 22 2 Z M 22 6 C 13.1634 6 6 13.1634 6 22 C 6 30.8366 13.1634 38 22 38 C 30.8366 38 38 30.8366 38 22 C 38 13.1634 30.8366 6 22 6 Z" fill="currentColor"/>
</svg>

<svg xmlns="http://www.w3.org/2000/svg" width="48" height="48" fill="none"><path id="icon" fill="currentColor" fill-rule="evenodd" d="M22 2c11.046 0 20 8.954 20 20 0 4.802-1.692 9.208-4.513 12.656l7.927 7.93a2 2 0 0 1-2.64 2.995l-.188-.167-7.93-7.927A19.92 19.92 0 0 1 22 42C10.954 42 2 33.046 2 22S10.954 2 22 2m0 4C13.163 6 6 13.163 6 22s7.163 16 16 16 16-7.163 16-16S30.837 6 22 6" clip-rule="evenodd"/></svg>
